X: 25276
T: Man Of Aran, The
R: reel
M: 4/4
K: Bminor
|:FBfe dBBB|Aced cAAG|FBfe dBBB|cedc dBBA|
FBfe dBBB|Aced cAAA|ffef dBBB|1 cedc dBBA:|2 cedc dBBc||
|:dfff dfff|ceee ceee|dfff dffd|cedc dBBc|
dfaf dfaf|cege cege|dfeg fBBB|1 cedc dBBc:|2 cedc dBBA||

